src/widgets/Hero/_i/vector-green.svg

<svg width="410" height="64" viewBox="0 0 410 64" fill="none" xmlns="http://www.w3.org/2000/svg">
<g clip-path="url(#clip0_15_1887)">
<path d="M371.979 39.2031C371.896 40.1695 373.693 40.3268 373.745 39.3155L374.106 37.068C374.174 36.656 372.7 36.3638 372.603 36.7683L371.987 39.2031H371.979Z" fill="#149A76"/>
<path d="M387.596 35.5622C387.484 36.1091 390.001 36.6485 389.873 36.1016L389.355 33.8167C389.235 33.2923 387.777 34.7082 387.596 35.5622Z" fill="#149A76"/>
<path d="M382.689 38.3041C382.869 37.967 380.607 37.5025 380.517 37.922L380.209 39.278C380.118 39.69 381.509 40.5141 381.712 40.132L382.689 38.3041Z" fill="#149A76"/>
<path d="M385.492 34.3261C385.357 34.6857 387.273 35.0753 387.175 34.6408L386.717 32.6106C386.642 32.2809 385.732 33.6968 385.492 34.3261Z" fill="#149A76"/>
<path d="M378.488 33.9665C378.916 35.0678 379.217 35.8394 379.615 35.7495L381.546 35.315L378.48 33.9665H378.488Z" fill="#149A76"/>
<path d="M401.455 32.9776C401.015 32.9776 400.658 32.6221 400.658 32.1835C400.658 31.745 401.015 31.3894 401.455 31.3894C401.895 31.3894 402.251 31.745 402.251 32.1835C402.251 32.6221 401.895 32.9776 401.455 32.9776Z" fill="#149A76"/>
<path d="M86.6006 54.4184C86.1606 54.4184 85.8039 54.0628 85.8039 53.6243C85.8039 53.1857 86.1606 52.8302 86.6006 52.8302C87.0405 52.8302 87.3972 53.1857 87.3972 53.6243C87.3972 54.0628 87.0405 54.4184 86.6006 54.4184Z" fill="#149A76"/>
<path d="M26.3038 41.2857C26.3414 40.9636 24.6354 40.7389 24.7631 41.0385L25.2968 42.2746C25.4245 42.5593 26.2588 41.6079 26.2963 41.2857H26.3038Z" fill="#149A76"/>
<path d="M111.702 42.9863C111.262 42.9863 110.906 42.6308 110.906 42.1922C110.906 41.7536 111.262 41.3981 111.702 41.3981C112.142 41.3981 112.499 41.7536 112.499 42.1922C112.499 42.6308 112.142 42.9863 111.702 42.9863Z" fill="#149A76"/>
<path d="M102.616 63.9775H102.135L101.669 63.9925L102.135 64H102.616L103.09 63.9925L102.616 63.9775Z" fill="#149A76"/>
<path d="M113.378 51.8263H112.897L112.424 51.8413L112.897 51.8488H113.378L113.844 51.8413L113.378 51.8263Z" fill="#149A76"/>
<path d="M79.784 41.4805L79.7765 41.945V42.4319L79.784 42.8964L79.7991 42.4319V41.945L79.784 41.4805Z" fill="#149A76"/>
<path d="M31.7299 39.3379L31.7224 39.8024V40.2894L31.7299 40.7538L31.745 40.2894V39.8024L31.7299 39.3379Z" fill="#149A76"/>
<path d="M35.2021 39.675H34.7211L34.2477 39.69L34.7211 39.6975H35.2021L35.6681 39.69L35.2021 39.675Z" fill="#149A76"/>
<path d="M43.9277 37.1954L43.9126 37.6598V38.1393L43.9277 38.6113L43.9352 38.1393V37.6598L43.9277 37.1954Z" fill="#149A76"/>
<path d="M48.2264 37.1954L48.2189 37.6598V38.1393L48.2264 38.6113L48.2415 38.1393V37.6598L48.2264 37.1954Z" fill="#149A76"/>
<path d="M47.5276 36.3788C47.6553 36.2739 47.6628 35.9368 47.6553 35.8169L46.6407 36.6335C45.551 36.8208 45.8065 36.9631 46.7084 37.038L47.5201 36.3713L47.5276 36.3788Z" fill="#149A76"/>
<path d="M86.2398 28.6176L86.2323 29.0821V29.5615L86.2398 30.0335L86.2549 29.5615V29.0821L86.2398 28.6176Z" fill="#149A76"/>
<path d="M15.1508 9.65656H14.6473L14.1663 9.66405L14.6473 9.67904H15.1508L15.6318 9.66405L15.1508 9.65656Z" fill="#149A76"/>
<path d="M78.3683 37.1704L78.7242 37.5253L78.3681 37.8802L78.0121 37.5252L78.3683 37.1704Z" fill="#149A76"/>
<path d="M54.7044 38.5957L55.0604 38.9507L54.7043 39.3055L54.3483 38.9506L54.7044 38.5957Z" fill="#149A76"/>
<path d="M37.4948 39.3097L37.8508 39.6647L37.4947 40.0196L37.1387 39.6646L37.4948 39.3097Z" fill="#149A76"/>
<path d="M56.1397 42.1693L56.4957 42.5243L56.1396 42.8791L55.7836 42.5241L56.1397 42.1693Z" fill="#149A76"/>
<path d="M78.3698 45.7444L78.7258 46.0993L78.3697 46.4542L78.0137 46.0992L78.3698 45.7444Z" fill="#149A76"/>
<path d="M408.249 6.48016L408.301 3.68583C408.316 2.7419 404.799 3.94803 404.521 4.27016L404.814 1.0638L403.304 2.68946C402.98 3.03407 402.071 4.30762 401.605 4.33759L395.743 4.72715L394.39 7.36416L388.43 6.71989C388.055 6.68243 388.205 8.61524 387.964 8.9149C387.777 9.14714 386.597 9.06473 386.484 8.77256L385.905 7.19935C385.469 6.03067 384.688 8.96734 382.816 10.5181C382.283 10.9601 380.562 10.3083 379.652 9.94873C377.33 9.02728 377.676 12.4734 375.323 13.0502L360.458 16.6911L356.144 17.7399L323.264 24.3849L263.718 22.1674L179.845 15.6797L106.727 9.9787L65.2791 8.12829L61.9798 8.14328L51.5107 8.43545L47.2945 8.37551L48.7375 5.04179C49.0682 4.28515 44.5439 3.03406 42.6049 5.97074L38.7945 5.71603C38.4563 5.69355 38.3962 7.70128 38.4037 8.36802C38.4037 8.69016 37.1561 8.05338 37.2689 7.90355C37.562 6.76484 37.6972 6.43521 37.3966 6.40525L35.4426 6.21047L34.2401 7.09447L36.3745 9.08721C35.9912 9.40185 35.42 9.90378 35.2246 9.77643L34.3378 9.20707C34.0973 9.05724 33.0076 8.32307 33.2255 8.50287C33.4435 8.68267 33.0602 9.89629 32.7896 9.9787L30.4373 10.6679C28.1901 11.3272 30.8281 7.46904 29.7834 7.22931C26.5968 6.48016 24.733 6.57006 23.3502 9.04226L20.4567 8.34555C20.0583 8.24816 18.5102 9.56666 18.7582 9.88131L20.4492 12.0464C20.8475 12.0613 18.8183 11.9864 18.2096 11.9639C17.8037 11.949 17.7887 11.2523 17.6835 9.32694C18.4651 9.25202 16.5637 8.92989 16.5787 9.1846L16.7516 12.9229C16.7666 13.2225 17.7586 13.4997 18.886 13.8818L18.6605 14.8557L16.8643 14.6834C11.6485 14.1814 5.23029 14.114 4.11047 17.3204L1.931 23.5758C1.66046 24.5647 1.41992 25.4637 1.65289 24.5871L0.157318 23.396C-0.0831909 23.2087 -1.22552 23.823 -1.00006 24.0328L0.0220337 24.9917C0.427887 25.3663 1.21704 26.4226 1.35983 27.0144L2.44205 31.5093C5.93677 32.0712 7.37222 32.4982 9.72458 35.2476L7.51501 35.1502C7.1618 35.1352 5.99686 36.0342 6.3125 36.1166L8.98804 36.7833C11.6786 37.4576 11.0774 40.2669 11.6335 39.9448L12.7834 39.278C13.1591 39.0608 14.324 39.1057 14.7374 39.2406L18.7056 40.5441C19.397 40.7688 19.63 42.7016 19.7953 44.1849C19.8554 44.7543 21.5089 44.979 21.321 44.3872L20.4492 41.6903L20.0283 40.4991C19.9005 40.147 21.1631 40.649 21.5389 40.6789L23.0571 40.7913C23.2374 40.8063 23.4629 40.9037 23.6583 40.9711C23.8311 41.031 23.8086 40.9711 23.9664 40.8213L26.2211 38.5963L29.9713 35.5098C32.3462 33.5545 37.4267 31.5168 40.3277 32.8578C40.3051 32.3259 40.1323 31.2246 40.478 31.3445L41.936 31.8389L41.6053 32.3184C41.4775 31.9513 41.688 32.5656 41.8834 33.135L42.447 32.3484L45.0023 33.6294C45.4232 33.8392 44.108 32.0787 43.5969 31.4718C45.5058 30.3481 47.4749 37.3827 54.3591 36.4312C56.0501 36.199 58.425 36.6934 60.0934 37.0755L61.5665 35.6596L63.4679 37.2853C64.1894 36.6859 64.9484 35.9593 65.3843 36.1466L68.4206 37.4651L67.9997 34.5209L70.4348 35.2176L69.2097 33.6594L66.0156 31.0074C65.7827 30.8126 65.1589 32.8203 64.9935 33.0825C64.8282 33.3447 63.7685 33.7043 63.9789 33.532L63.9188 30.7676C63.9113 30.3706 65.1288 30.1009 65.3994 30.0784L65.8728 30.3556L67.5488 31.2846L70.0289 27.2766L94.0409 26.1454C93.3645 28.7524 92.5378 31.307 92.7407 33.2698C92.8685 34.4909 94.4242 37.3677 93.808 38.5064L90.2682 45.054C88.5696 48.1929 87.8632 51.669 89.727 54.9278C91.5909 58.1866 88.735 59.3403 91.5608 59.4976L100.827 60.0295L102.714 62.1196C103.435 61.4903 104.27 60.6663 104.69 60.936L105.983 61.7525C106.148 61.5877 105.021 62.8688 105.006 62.8763L105.855 63.1235C105.84 63.1385 106.434 62.2545 106.532 62.0972C106.689 61.8574 107.005 61.3855 107.058 61.1083L107.343 59.6175C107.388 59.4002 107.96 59.6999 108.463 59.9471L109.245 59.61C108.426 58.5012 107.922 57.9693 108.11 57.6322L108.974 56.089C109.012 56.0141 109.109 55.5496 109.109 55.4522L109.094 54.3135L111.913 56.5984C111.95 53.6093 109.275 54.3734 109.621 50.9423C109.778 49.3466 109.681 48.2154 109.185 47.1141L104.848 37.5325C104.119 35.9218 103.931 34.873 104.848 33.0825C107.306 28.228 104.623 25.6959 108.816 25.7483L168.392 26.4825L260.133 29.3368L323.82 30.2882C336.882 32.4532 349.418 34.0864 362.735 34.0414C364.539 34.1388 366.26 34.6632 367.545 35.3075C367.545 35.2551 369.063 34.0639 369.544 33.9965L382.546 32.3184C382.749 32.2884 383.282 32.9102 383.297 33.1275L383.418 34.7756C383.433 35.0153 384.109 34.8655 384.304 34.7157C384.5 34.5658 384.981 33.8092 384.861 33.6069L383.666 31.6516C384.154 31.7565 385.875 32.2285 386.341 31.9363L390.354 29.4117L395.503 28.8049L398.885 24.7445C399.042 24.5497 400.095 24.235 400.297 24.3774L401.38 25.179C401.688 25.4037 402.522 25.576 402.913 25.5835C403.176 25.5835 403.649 24.5497 403.431 24.4074L401.545 23.2012C404.822 19.5603 406.144 15.6198 406.362 10.8028L406.61 10.9376C407.738 9.47677 408.369 8.3905 408.91 6.95213L408.97 6.57006L409.985 7.12443C410.022 6.77982 410.007 5.52125 409.714 5.6486L408.692 6.11308L408.249 6.47267V6.48016ZM406.828 4.30762L407.189 4.66721L406.828 5.02681L406.468 4.66721L406.828 4.30762ZM44.2207 6.80979L45.6562 5.58118V8.0384L44.2207 6.80979ZM405.115 7.71626C405.784 6.73487 406.19 6.37528 406.22 6.58504C405.648 7.17687 405.07 7.7687 405.115 7.71626ZM39.6212 6.32284L39.982 6.8023L39.6212 7.16189L39.0876 6.8023L39.6212 6.32284ZM396.615 7.84362C397.066 7.69379 398.719 7.13941 398.441 7.22931L397.547 9.30446C397.532 9.38687 396.277 7.95599 396.615 7.84362ZM403.401 10.0012C403.274 8.54782 403.198 7.69379 403.228 8.01592L403.401 10.0012ZM389.618 7.79867L389.979 8.24067L389.618 8.60026L389.032 8.24067L389.618 7.79867ZM41.7706 7.88857L41.7857 8.35304V8.8325L41.7706 9.29697L41.7556 8.8325V8.35304L41.7706 7.88857ZM25.5447 9.40934C25.3869 8.59277 27.4687 8.75009 27.138 9.40934L26.1309 11.4096C25.9956 11.6793 25.7777 10.563 25.5447 9.40185V9.40934ZM20.7122 10.0836C19.9757 9.33443 19.6525 9.0048 20.3064 9.66405C21.2383 10.608 21.4488 10.8252 20.7122 10.0836ZM22.8767 12.2936C22.0124 11.6268 21.787 11.4545 22.6813 12.1437C23.3878 12.6906 23.6658 12.9079 22.8767 12.2936ZM65.6248 29.6289L66.181 27.8609C66.2787 27.5388 66.6244 28.6625 66.5342 28.9847L66.226 30.0859L65.6248 29.6214V29.6289ZM66.0457 35.0378C65.4745 32.8877 67.3158 33.517 67.4211 34.9704C67.4436 35.2326 66.1208 35.3075 66.0457 35.0378ZM105.247 59.9771C105.48 59.3553 105.976 58.8608 106.599 58.6286L105.247 59.9771Z" fill="#149A76"/>
<path d="M391.722 5.37142C391.752 5.78346 393.533 5.99322 393.654 5.54373L394.368 2.85427C394.518 2.28492 393.969 0.771633 393.706 0.239735C393.443 -0.292162 391.316 0.119871 391.361 0.7117L391.722 5.37142Z" fill="#149A76"/>
<path d="M400.921 0.689223C400.252 0.12736 398.576 -0.157318 398.682 0.322139L399.095 2.24746C399.23 2.88424 401.425 1.10875 400.921 0.689223Z" fill="#149A76"/>
<path d="M23.6658 4.25518C23.0946 3.80569 21.3886 3.50603 21.4938 3.95552L21.9147 5.76847C22.0575 6.37528 24.1844 4.65972 23.6733 4.24769L23.6658 4.25518Z" fill="#149A76"/>
<path d="M372.182 8.9224C371.949 8.68267 370.378 8.6527 370.446 8.98982L370.859 10.9826C370.927 11.3122 372.129 11.005 372.415 10.8327C372.843 10.5705 372.565 9.31196 372.174 8.9224H372.182Z" fill="#149A76"/>
<path d="M70.1942 29.4117L72.0656 31.382C72.5316 29.7788 72.2084 28.3853 71.9078 28.5352L70.1942 29.4117Z" fill="#149A76"/>
<path d="M27.7917 5.10173C27.3518 5.10173 26.9951 4.7462 26.9951 4.30763C26.9951 3.86906 27.3518 3.51353 27.7917 3.51353C28.2317 3.51353 28.5884 3.86906 28.5884 4.30763C28.5884 4.7462 28.2317 5.10173 27.7917 5.10173Z" fill="#149A76"/>
<path d="M387.025 5.50626C387.048 5.18413 385.545 5.01182 385.642 5.31898L386.071 6.67494C386.168 6.98209 387.003 5.8284 387.025 5.50626Z" fill="#149A76"/>
<path d="M383.019 8.33806C382.215 8.07586 381.298 7.84362 381.388 8.14328L381.764 9.40185C381.854 9.70151 382.583 8.9224 383.019 8.33806Z" fill="#149A76"/>
<path d="M14.0685 12.6682C14.0685 12.3385 12.5729 12.1662 12.6857 12.4809L13.1741 13.8593C13.2869 14.1739 14.0685 12.9978 14.0685 12.6682Z" fill="#149A76"/>
<path d="M389.197 32.0037C389.144 31.6741 387.521 31.3894 387.656 31.6966L388.213 32.9926C388.348 33.2998 389.257 32.3334 389.205 31.9963L389.197 32.0037Z" fill="#149A76"/>
<path d="M100.166 61.3555C99.8805 61.1008 98.7006 60.6813 98.7907 60.9884L99.144 62.2769C99.2266 62.5841 100.414 61.5653 100.174 61.3555H100.166Z" fill="#149A76"/>
<path d="M69.3901 40.1245C68.9502 40.1245 68.5935 39.769 68.5935 39.3304C68.5935 38.8919 68.9502 38.5363 69.3901 38.5363C69.8301 38.5363 70.1868 38.8919 70.1868 39.3304C70.1868 39.769 69.8301 40.1245 69.3901 40.1245Z" fill="#149A76"/>
<path d="M58.2446 42.5893L59.1765 40.9336C59.3418 40.6415 57.8688 40.7838 57.8989 41.1134C57.9289 41.4431 58.0792 42.8814 58.2446 42.5967V42.5893Z" fill="#149A76"/>
<path d="M64.3697 42.9863C63.9297 42.9863 63.5731 42.6308 63.5731 42.1922C63.5731 41.7536 63.9297 41.3981 64.3697 41.3981C64.8097 41.3981 65.1664 41.7536 65.1664 42.1922C65.1664 42.6308 64.8097 42.9863 64.3697 42.9863Z" fill="#149A76"/>
<path d="M37.0659 34.0339L38.5389 35.1652L38.2458 33.577C38.1857 33.2698 36.9757 34.0265 37.0659 34.0339Z" fill="#149A76"/>
<path d="M390.054 4.37505C390.963 5.04179 390.693 4.84701 389.926 4.28515C388.994 3.64837 389.182 3.77573 390.054 4.37505Z" fill="#149A76"/>
<path d="M63.2875 38.6263L63.2799 39.0907V39.5702L63.2875 40.0347L63.3025 39.5702V39.0907L63.2875 38.6263Z" fill="#149A76"/>
<path d="M66.1584 37.9071L66.1509 38.3715V38.8585L66.1584 39.323L66.1735 38.8585V38.3715L66.1584 37.9071Z" fill="#149A76"/>
<path d="M67.5939 37.7722L67.5864 38.2891V38.8135L67.5939 39.3305L67.6014 38.8135V38.2891L67.5939 37.7722Z" fill="#149A76"/>
<path d="M20.855 6.79481H20.374L19.9081 6.80979L20.374 6.81728H20.855L21.3285 6.80979L20.855 6.79481Z" fill="#149A76"/>
<path d="M22.4107 6.38277L22.4032 6.90718V7.46155L22.4107 7.99345L22.4182 7.46155V6.90718L22.4107 6.38277Z" fill="#149A76"/>
<path d="M51.8354 5.71991L52.1914 6.07488L51.8353 6.42974L51.4793 6.07477L51.8354 5.71991Z" fill="#149A76"/>
<path d="M30.3178 5.71391L30.6738 6.06889L30.3177 6.42374L29.9617 6.06877L30.3178 5.71391Z" fill="#149A76"/>
<path d="M18.1345 7.14627L18.4905 7.50127L18.1344 7.85613L17.7783 7.50113L18.1345 7.14627Z" fill="#149A76"/>
<path d="M398.229 30.7564L398.585 31.1114L398.229 31.4662L397.873 31.1112L398.229 30.7564Z" fill="#149A76"/>
<path d="M69.763 30.7346L70.119 31.0896L69.7629 31.4444L69.4069 31.0894L69.763 30.7346Z" fill="#149A76"/>
<path d="M45.3789 34.3026L45.7349 34.6575L45.3787 35.0124L45.0228 34.6574L45.3789 34.3026Z" fill="#149A76"/>
<path d="M374.564 35.0365L374.92 35.3915L374.564 35.7463L374.208 35.3913L374.564 35.0365Z" fill="#149A76"/>
<path d="M370.977 35.0414L371.333 35.3963L370.977 35.7512L370.621 35.3962L370.977 35.0414Z" fill="#149A76"/>
<path d="M58.2925 37.8779L58.6484 38.2329L58.2923 38.5877L57.9363 38.2328L58.2925 37.8779Z" fill="#149A76"/>
<path d="M96.2805 60.4565L95.9198 61.1307L96.2805 61.4903L96.6412 61.1307L96.2805 60.4565Z" fill="#149A76"/>
<path d="M107.043 62.5991L106.554 63.2733L107.043 63.6329L107.396 63.2733L107.043 62.5991Z" fill="#149A76"/>
</g>
<defs>
<clipPath id="clip0_15_1887">
<rect width="411" height="64" fill="white" transform="matrix(-1 0 0 1 410 0)"/>
</clipPath>
</defs>
</svg>

<svg xmlns="http://www.w3.org/2000/svg" width="410" height="64" fill="none" viewBox="0 0 410 64"><g fill="#149A76" clip-path="url(#a)"><path d="M371.979 39.203c-.083.966 1.714 1.124 1.766.112l.361-2.247c.068-.412-1.406-.704-1.503-.3l-.616 2.435zm15.617-3.641c-.112.547 2.405 1.087 2.277.54l-.518-2.285c-.12-.525-1.578.891-1.759 1.745m-4.907 2.742c.18-.337-2.082-.802-2.172-.382l-.308 1.356c-.091.412 1.3 1.236 1.503.854zm2.803-3.978c-.135.36 1.781.75 1.683.315l-.458-2.03c-.075-.33-.985 1.086-1.225 1.715m-7.004-.359c.428 1.1.729 1.872 1.127 1.782l1.931-.434-3.066-1.348zm22.967-.989a.796.796 0 0 1-.797-.794.796.796 0 0 1 1.593 0 .795.795 0 0 1-.796.794M86.6 54.418a.795.795 0 0 1-.796-.794.796.796 0 0 1 1.593 0 .795.795 0 0 1-.796.794M26.304 41.286c.037-.322-1.669-.547-1.54-.248l.533 1.237c.127.284.962-.667 1-.99zm85.398 1.7a.795.795 0 1 1 0-1.588c.44 0 .797.356.797.794a.796.796 0 0 1-.797.794m-9.086 20.992h-.481l-.466.014.466.008h.481l.474-.008zm10.762-12.152h-.481l-.473.015.473.008h.481l.466-.008zM79.784 41.48l-.008.465v.487l.008.464.015-.464v-.487zM31.73 39.338l-.008.464v.487l.008.465.015-.465v-.487zm3.472.337h-.48l-.474.015.473.008h.481l.466-.008zm8.726-2.48-.015.465v.48l.015.471.007-.472v-.48zm4.298 0-.007.465v.48l.007.471.016-.472v-.48zm-.698-.816c.127-.105.135-.442.127-.562l-1.014.816c-1.09.188-.834.33.067.405l.812-.667zm38.712-7.761-.008.464v.48l.008.471.015-.472v-.479zM15.15 9.657h-.503l-.48.007.48.015h.504l.48-.015zM78.368 37.17l.356.355-.356.355-.356-.355zm-23.664 1.426.356.355-.356.355-.356-.355zm-17.209.714.356.355-.356.355-.356-.355zm18.645 2.86.356.354-.356.355-.356-.355zm22.23 3.574.356.355-.356.355-.356-.355z"/><path d="m408.249 6.48.052-2.794c.015-.944-3.502.262-3.78.584l.293-3.206-1.51 1.625c-.324.345-1.233 1.619-1.699 1.649l-5.862.39-1.353 2.636-5.96-.644c-.375-.038-.225 1.895-.466 2.195-.187.232-1.367.15-1.48-.142l-.579-1.574c-.436-1.168-1.217 1.768-3.089 3.32-.533.441-2.254-.21-3.164-.57-2.322-.922-1.976 2.524-4.329 3.101l-14.865 3.641-4.314 1.049-32.88 6.645-59.546-2.218-83.873-6.487-73.118-5.701-41.448-1.85-3.3.014-10.468.292-4.217-.06 1.444-3.333c.33-.757-4.194-2.008-6.133.929l-3.81-.255c-.339-.022-.399 1.985-.391 2.652 0 .322-1.248-.315-1.135-.464.293-1.14.428-1.469.128-1.499l-1.954-.195-1.203.884 2.134 1.993c-.383.315-.954.817-1.15.69l-.886-.57c-.24-.15-1.33-.884-1.113-.704s-.165 1.393-.435 1.476l-2.353.689c-2.247.66.391-3.199-.654-3.439-3.186-.749-5.05-.659-6.433 1.813l-2.893-.696c-.399-.098-1.947 1.22-1.699 1.535l1.691 2.165-2.24-.082c-.405-.015-.42-.712-.526-2.637.782-.075-1.12-.397-1.104-.142l.173 3.738c.015.3 1.007.577 2.134.959l-.226.974-1.796-.173c-5.216-.502-11.634-.569-12.754 2.637l-2.179 6.256c-.27.989-.511 1.888-.278 1.011L.157 23.396c-.24-.187-1.383.427-1.157.637l1.022.959c.406.374 1.195 1.43 1.338 2.022l1.082 4.495c3.495.562 4.93.99 7.283 3.739l-2.21-.098c-.353-.015-1.518.884-1.202.967l2.675.666c2.69.675 2.09 3.484 2.646 3.162l1.15-.667c.375-.217 1.54-.172 1.953-.037l3.969 1.303c.691.225.924 2.158 1.09 3.64.06.57 1.713.795 1.525.203l-.872-2.697-.42-1.19c-.128-.353 1.134.149 1.51.179l1.518.112c.18.015.406.113.601.18.173.06.15 0 .308-.15l2.255-2.225 3.75-3.086c2.375-1.956 7.456-3.993 10.357-2.652-.023-.532-.196-1.633.15-1.513l1.458.494-.33.48c-.129-.368.082.247.277.816l.564-.787 2.555 1.281c.421.21-.894-1.55-1.405-2.157 1.909-1.124 3.878 5.91 10.762 4.96 1.691-.233 4.066.261 5.734.643l1.473-1.415 1.902 1.625c.721-.6 1.48-1.326 1.916-1.138l3.037 1.318L68 34.521l2.435.697-1.225-1.559-3.194-2.652c-.233-.194-.857 1.813-1.023 2.076-.165.262-1.224.621-1.014.449l-.06-2.764c-.008-.397 1.21-.667 1.48-.69l.474.278 1.676.929 2.48-4.008 24.012-1.132c-.676 2.607-1.503 5.162-1.3 7.125.127 1.22 1.683 4.098 1.067 5.236l-3.54 6.548c-1.698 3.139-2.405 6.615-.541 9.874s-.992 4.412 1.834 4.57l9.266.532 1.887 2.09c.721-.63 1.556-1.454 1.976-1.184l1.293.816c.165-.164-.962 1.117-.977 1.124l.849.248c-.015.014.579-.87.677-1.027.157-.24.473-.712.526-.989l.285-1.49c.045-.218.617.082 1.12.33l.782-.338c-.819-1.109-1.323-1.64-1.135-1.978l.864-1.543c.038-.075.135-.54.135-.637l-.015-1.139 2.819 2.285c.037-2.989-2.638-2.225-2.292-5.656.157-1.595.06-2.727-.436-3.828l-4.337-9.581c-.729-1.611-.917-2.66 0-4.45 2.458-4.855-.225-7.387 3.968-7.335l59.576.735 91.741 2.854 63.687.951c13.062 2.165 25.598 3.798 38.915 3.753 1.804.098 3.525.622 4.81 1.267 0-.053 1.518-1.244 1.999-1.312l13.002-1.678c.203-.03.736.592.751.81l.121 1.648c.015.24.691.09.886-.06s.677-.907.557-1.11l-1.195-1.954c.488.104 2.209.576 2.675.284l4.013-2.524 5.149-.607 3.382-4.06c.157-.195 1.21-.51 1.412-.368l1.083.802c.308.225 1.142.397 1.533.405.263 0 .736-1.034.518-1.177l-1.886-1.206c3.277-3.64 4.599-7.581 4.817-12.398l.248.135c1.128-1.461 1.759-2.548 2.3-3.986l.06-.382 1.015.554c.037-.344.022-1.603-.271-1.475l-1.022.464-.443.36zm-1.421-2.172.361.36-.361.359-.36-.36zM44.221 6.81l1.435-1.229v2.457zm360.894.906c.669-.981 1.075-1.34 1.105-1.131a78 78 0 0 1-1.105 1.131M39.621 6.323l.361.48-.36.359-.534-.36zm356.994 1.52c.451-.15 2.104-.704 1.826-.614l-.894 2.075c-.015.083-1.27-1.348-.932-1.46m6.786 2.158c-.127-1.453-.203-2.307-.173-1.985zM389.618 7.8l.361.442-.361.36-.586-.36zm-347.847.09.015.464v.48l-.015.464-.015-.465v-.479zM25.545 9.41c-.158-.816 1.924-.659 1.593 0l-1.007 2c-.135.27-.353-.846-.586-2.007zm-4.833.675c-.736-.75-1.06-1.08-.406-.42.932.944 1.143 1.161.406.42m2.165 2.21c-.865-.667-1.09-.84-.196-.15.707.547.985.764.196.15M65.625 29.63l.556-1.768c.098-.322.443.802.353 1.124l-.308 1.1-.601-.464zm.42 5.409c-.57-2.15 1.27-1.521 1.376-.068.023.263-1.3.337-1.375.068m39.202 24.94a2.3 2.3 0 0 1 1.352-1.35z"/><path d="M391.722 5.371c.03.412 1.811.622 1.932.173l.714-2.69c.15-.57-.399-2.082-.662-2.614s-2.39-.12-2.345.472zM400.921.69c-.669-.563-2.345-.847-2.239-.368l.413 1.925c.135.637 2.33-1.138 1.826-1.558M23.666 4.255c-.571-.45-2.277-.749-2.172-.3l.42 1.813c.143.607 2.27-1.108 1.76-1.52zm348.516 4.667c-.233-.24-1.804-.27-1.736.068l.413 1.993c.068.33 1.27.022 1.556-.15.428-.263.15-1.521-.241-1.91zM70.194 29.412l1.872 1.97c.466-1.603.142-2.997-.158-2.847zM27.792 5.102a.795.795 0 0 1-.797-.794c0-.439.357-.794.797-.794s.796.355.796.794a.795.795 0 0 1-.796.794m359.233.404c.023-.322-1.48-.494-1.383-.187l.429 1.356c.097.307.932-.847.954-1.169m-4.006 2.832c-.804-.262-1.721-.494-1.631-.195l.376 1.259c.09.3.819-.48 1.255-1.064m-368.95 4.33c0-.33-1.496-.502-1.383-.187l.488 1.378c.113.315.895-.861.895-1.19m375.128 19.335c-.053-.33-1.676-.615-1.541-.307l.557 1.296c.135.307 1.044-.66.992-.997zM100.166 61.356c-.285-.255-1.465-.675-1.375-.368l.353 1.289c.083.307 1.27-.712 1.03-.922zM69.39 40.125a.795.795 0 0 1-.796-.795.795.795 0 0 1 1.593 0 .795.795 0 0 1-.797.794M58.245 42.59l.931-1.656c.166-.292-1.307-.15-1.277.18s.18 1.767.346 1.483zm6.125.396a.795.795 0 1 1 0-1.588c.44 0 .796.356.796.794a.795.795 0 0 1-.796.794m-27.304-8.952 1.473 1.131-.293-1.588c-.06-.307-1.27.45-1.18.457M390.054 4.375c.909.667.639.472-.128-.09-.932-.637-.744-.51.128.09M63.288 38.626l-.008.465v.48l.008.464.015-.465v-.48zm2.87-.719-.007.465v.486l.007.465.016-.465v-.486zm1.436-.135-.008.517v.524l.008.517.007-.517v-.524zM20.855 6.795h-.481l-.466.015.466.007h.481l.473-.007zm1.555-.412-.007.524v.555l.008.531.007-.531v-.555zm29.425-.663.356.355-.356.355-.356-.355zm-21.517-.006.356.355-.356.355-.356-.355zM18.135 7.146l.355.355-.356.355-.356-.355zm380.094 23.61.356.355-.356.355-.356-.355zm-328.466-.021.356.355-.356.354-.356-.355zm-24.384 3.568.356.355-.356.354-.356-.355zm329.185.734.356.355-.356.354-.356-.355zm-3.587.004.356.355-.356.355-.356-.355zM58.293 37.878l.355.355-.356.355-.356-.355zM96.28 60.457l-.36.674.36.36.361-.36zm10.763 2.143-.489.673.489.36.353-.36z"/></g><defs><clipPath id="a"><path fill="#fff" d="M410 0H-1v64h411z"/></clipPath></defs></svg>
